X:1
T:Give Me the Roses While I Live
M:3/4
L:1/4
K:G
 B A B| G2 B| G2A/2-G/2| B3| A B c| B2A/2-G/2| G3| B A B| G2 D| G2A/2-G/2|\
 B3| A B c| B2A/2-G/2| G3| c c c| G2 E| D2 G| B3| B A G| G- A B| A3|\
 B A B| G2 D| G2A/2-G/2| B3| A B c| B2A/2-G/2| G3|
